!!!!SEGMENT: pl-wtm--r-2139--003_wysocki-kasper-napoleon--la-legerte-n-3.krn
!!!cenid: 18xx:4370
!!!COM: Wysocki, Kasper Napoleon
!!!COM-rismID: pe41024789
!!!CDT: 1810/12/06-1850/09/21
!!!CNT: Polish
!!!GTL: La Légèrté
!!!OTL: N. 3.
!!!OMV: 003
!!!PDT:
!!!AGN:
!!!SMS-siglum: PL-Wtm
!!!SMS-shelfmark: R 2139
!!!SMS-shelfwork: 001-003 G
!!!SMS-variant:
!!!SMS-altvar:
!!!NIFC-rismSourceID: 1001139896
!!!NIFC-rismChildID: 1001139900
!!!NIFC-islandoraID: pl-wtm:29947
!!!URL-pdf-islandora: https://repozytorium.nifc.pl/islandora/object/pl-wtm:29947/datastream/PDF/view
!!!URL-scan: https://polish.musicsources.pl/pl/lokalizacje/galeria/rekopisy/6569/3 @EN{Scan on Polish Music Sources Website} @PL{Skany w portalu Dziedzictwo Muzyki Polskiej w otwartym dostępie}
!!!ONB-nifc: UWAGA: skan 2-3
!!!AIN: 2 piano
!!!key: G
!!!OMD: N. 3. D: bravura
**kern	**kern	**dynam
*part2	*part1	*part1
*staff2	*staff1	*
*>[A,A,B,B]	*>[A,A,B,B]	*>[A,A,B,B]
*>A	*>A	*>A
*I"fortepian	*I"fortepian	*
*Ipiano	*Ipiano	*
*ICklav	*ICklav	*
*clefF4	*clefG2	*
*k[f#]	*k[f#]	*
*G:	*G:	*
*M3/4	*M3/4	*
*	*8va	*
=	=	=
*ped	*	*
4r	8ddd\L	f
.	8ddd\J	.
=1	=1	=1
4GG/	8ddd\L	.
.	8ddd\	.
4B 4G\	8ddd\	.
.	8ddd\	.
4D\	8ddd\	.
.	8ddd\J	.
=2	=2	=2
*rep	*2\right	*
4GG/	2ggg: 2bb:\	.
4B 4G\	.	.
4D\	8ddd\L	.
.	8ddd\J	.
*Xrep	*	*
=3	=3	=3
*rep	*	*
4GG/	8ddd\L	.
.	8ddd\	.
4B 4G\	8ddd\	.
.	8ddd\	.
4D\	8ddd\	.
.	8ddd\J	.
*Xrep	*	*
=4	=4	=4
*rep	*	*
4GG/	2.bbb: 2.bb:\	.
4B 4G\	.	.
4D\	.	.
*Xrep	*	*
=5	=5	=5
.	8qddd/	.
4DD/	8cccc^^\L	.
.	8bbb\	.
4c 4A 4F#\	8aaa\	.
.	8aaa\	.
4D\	8aaa\	.
.	8aaa\J	.
!!LO:LB:g=original
=6	=6	=6
4GG/	8bbb\L	.
.	8aaa\	.
4B 4G\	8ggg\	.
.	8ggg\	.
4D\	8ggg\	.
.	8ggg\J	.
=7	=7	=7
*^	*	*
*	*2\right	*	*
4ryy	2.AA\	8fff#\L	.
.	.	8ggg\	.
4A 4F# 4D/	.	8aaa\	.
.	.	8aa\	.
4A 4G 4C#X/	.	8fff# 8ccc#X\	.
.	.	8eee\J	.
*v	*v	*	*
=8	=8	=8
4A 4F# 4D\	4ddd\	.
4r	4r	.
4r	8ddd\L	.
*ped	*	*
.	8ddd\J	.
=9	=9	=9
4GG/	8ddd\L	.
.	8ddd\	.
4B 4G\	8ddd\	.
.	8ddd\	.
4D\	8ddd\	.
.	8ddd\J	.
=10	=10	=10
.	8qbb/	.
4GG/	2ggg 2bb^^\	.
4B 4G\	.	.
4D\	8ddd\L	.
.	8ddd\J	.
!!LO:LB:g=original
=11	=11	=11
4GG/	8ddd\L	.
.	8ddd\	.
4B 4G\	8ddd\	.
.	8ddd\	.
4D\	8ddd\	.
.	8ddd\J	.
=12	=12	=12
*rep	*	*
.	8qbb/	.
4GG/	2.bbb 2.bb^^\	.
4B 4G\	.	.
4D\	.	.
*Xrep	*	*
*Xped	*	*
=13	=13	=13
.	8qaa/	.
*^	*	*
4r	2.AA\	8aaa^^\L	.
.	.	8fff#\	.
4A 4F# 4D/	.	8ddd\	.
.	.	8aa\	.
4A 4F# 4D/	.	8aa\	.
.	.	8aa\J	.
=14	=14	=14	=14
4r	2.AA\	8bb-X\L	.
.	.	8aa\	.
4A 4G 4E/	.	8aa\	.
.	.	8aa\	.
4A 4G 4E/	.	8ggg\	.
.	.	8ccc#X\J	.
=15	=15	=15	=15
4r	2.AA\	8eee\L	.
.	.	8eee\	.
4A 4E 4C#X/	.	8eee\	.
.	.	8eee\	.
4A 4E 4C#/	.	8bbb\	.
.	.	8aaa\J	.
*v	*v	*	*
=16	=16	=16
2ryy	2ddd\	.
!!LO:PB:g=original
=:|!|:	=:|!|:	=:|!|:
*>B	*>B	*>B
4r	8ddd\L	.
.	8ddd\J	.
=17	=17	=17
*^	*	*
4r	2.D\	8ddd\L	p
.	.	8ddd\	.
4c 4A 4F#/	.	8ddd\	.
.	.	8ddd\	.
4c 4A 4F#/	.	8fff#\	.
.	.	8ggg\J	.
=18	=18	=18	=18
*rep	*rep	*	*
4r	2.D\	4aaa\	.
4c 4A 4F#/	.	4r	.
4c 4A 4F#/	.	8ddd\L	.
.	.	8ddd\J	.
*Xrep	*Xrep	*	*
=19	=19	=19	=19
4r	2.D\	8ddd\L	.
.	.	8ddd\	.
4d 4B 4G/	.	8ddd\	.
.	.	8ddd\	.
4d 4B 4G/	.	8ggg\	.
.	.	8aaa\J	.
=20	=20	=20	=20
*rep	*rep	*	*
4r	2.D\	4bbb\	.
4d 4B 4G/	.	4r	.
4d 4B 4G/	.	8bbb\L	f
.	.	8bbb\J	.
*Xrep	*Xrep	*	*
=21	=21	=21	=21
4r	2.GG\	8bbb\L	.
.	.	8bbb\	.
4G 4D 4BB/	.	8bbb\	.
.	.	8bbb\	.
4G 4D 4BB/	.	8cccc#X\	.
.	.	8dddd\J	.
!!LO:LB:g=original
=22	=22	=22	=22
4r	2.AA\	8aaa\L	.
.	.	8aaa\	.
4A 4F# 4D/	.	8aaa\	.
.	.	8fff#\	.
4A 4F# 4D/	.	8bbb\	.
.	.	8aaa\J	.
=23	=23	=23	=23
4r	2.AA\	8eee\L	.
.	.	8eee\	.
4A 4E 4C#X/	.	8eee\	.
.	.	8eee\	.
4A 4E 4C#/	.	8bbb\	.
.	.	8aaa\J	.
*v	*v	*	*
=24	=24	=24
4A 4F# 4D\	4ddd\	.
4DD/	4r	.
*	*X8va	*
=:|!	=:|!	=:|!
*-	*-	*-
!!!system-decoration: {(*)}
!!!ENC: Filip Voros
!!!END: 2023-07-12
!!!ENC: Marta Lawrence
!!!END: 2023-07-21
!!!YEC: Copyright 2022 Narodowy Instytut Fryderyka Chopina (https://polishscores.org)
!!!YEM: License CC-BY-4.0 (https://creativecommons.org/licenses/by/4.0)
